docs/icons/svg/caret.svg

<svg viewBox="0 0 10 6" fill="none" xmlns="http://www.w3.org/2000/svg"><path d="M10 0v2H8V0h2ZM8 2v2H6V2h2ZM4 2v2H2V2h2ZM2 0v2H0V0h2ZM6 4v2H4V4h2Z" fill="#000"/></svg>

<svg width="10" height="6" viewBox="0 0 10 6" fill="none" xmlns="http://www.w3.org/2000/svg">
<path d="M10 0L10 2L8 2L8 -8.74228e-08L10 0Z" fill="#000"/>
<path d="M8 2L8 4L6 4L6 2L8 2Z" fill="#000"/>
<path d="M4 2L4 4L2 4L2 2L4 2Z" fill="#000"/>
<path d="M2 -3.49691e-07L2 2L-8.74228e-08 2L0 -4.37114e-07L2 -3.49691e-07Z" fill="#000"/>
<path d="M6 4L6 6L4 6L4 4L6 4Z" fill="#000"/>
</svg>
